X:1
T:Sometime
T:Sometime
T:A. B. Carroll
T:Lizzie D. Fielder, 1890
T:Public Domain Courtesy of the Cyber Hymnal™
T:Public Domain Courtesy of the Cyber Hymnal™
C:A. B. Carroll
Z:Public Domain
Z:Courtesy of the Cyber Hymnal™
%%score ( 1 2 ) ( 3 4 )
L:1/8
Q:1/4=90
M:2/4
K:G
V:1 treble 
V:2 treble 
V:3 bass 
V:4 bass 
V:1
 [B,D]2 | [B,D][B,D] [B,D][B,D] | [B,D][FA] [GB][Ge] | [Gd]2 [GB]2 | z2 [GB]2 | [Gd][Gd] [DG][DG] | %6
w: 1.~Some-|time the hands, grown|wea- ry with life’s|toil- ing,|Shall|fold- ed be a-|
w: 2.~Some-|time the eyes, grown|dim with cease- less|watch- ing,|A-|mid the mists that|
w: 3.~Some-|time our pil- grim-|age here will be|end- ed,|Life’s|bat- tles fought, and|
 [FA][FA] [DB][EG] | [FA]2 D2 | D[B,D] [CE][B,D] | [DG][FA] [GB][Ge] | [Gd]2 [GB]G | [GB]2 [DA]2 | %12
w: cross the pulse- less|breast, Some-|time the heart, with|care and pain long|ach- ing, Shall|be at|
w: shroud our earth- ly|way, Shall|close a- while to|greet a- gain at|wak- ing, A|clear- er|
w: vic- to- ries be|won; Some-|time we’ll hear the|Sav- ior’s wel- come|plau- dit, “Ser-|vant, well|
 !fermata![DG]2 [GB]2 | [GB][GB] [Gd][Gd] | [Ge][Dd] [EG][FA] | [GB]2 [Gd]2 | z2 [Gd]2 | %17
w: rest. Some-|time the feet that|climb life’s rug- ged|moun- tain,|Shall|
w: day. Some-|time the soul, too|tired for lon- ger|stay- ing,|Where|
w: done!” Some-|time, we know this|earth- ly house will|crum- ble,|Its|
 [Ge][Gd] [DB][Gd] | G[FA] [GB]G | !fermata![FA]2 D2 | D[B,D] [CE][B,D] | [DG][FA] [GB][Ge] | %22
w: leave their prints no|more a- long the|way, But|pause be- side some|cool, life giv- ing|
w: dirg- es make the|mel- ody of years,|Shall fall|a- sleep to wake|’mid heav- en- ly|
w: beau- ty fade, its|mor- tal powers de-|cay. But|we’ll a- bide with-|in the heav’n- ly|
 [Gd]2 [GB]G | [GB]2 [DA]2 | !fermata![DG]3 |] %25
w: foun- tain, No|more to|stray.|
w: mu- sic, That|knows no|tears.|
w: man- sions, Thro’|end- less|day.|
V:2
 x2 | x4 | x4 | x4 | x4 | x4 | x4 | x2 D2 | D x3 | x4 | x3 G | x4 | x4 | x4 | x4 | x4 | x4 | x4 | %18
 G x G x | x2 D2 | D x3 | x4 | x3 G | x4 | x3 |] %25
V:3
 [G,,G,]2 | [G,,G,][G,,G,] [G,,G,][G,,G,] | [B,,G,][D,F,] G,[G,C] | [G,B,]2 [G,D]2 | z2 [G,D]2 | %5
 [G,B,][G,B,] [B,,D][B,,D] | [D,D][D,D] [G,B,][E,^C] | [D,D]2 ([D,B,][C,A,]) | %8
 [B,,G,][G,,G,] [G,,G,][G,,G,] | [B,,G,][D,F,] G,[G,C] | [G,B,]2 [G,D][E,^C] | [D,D]2 [D,C]2 | %12
 [G,,G,B,]2 [E,G,]2 | [E,G,][E,G,] [B,,G,][G,,B,] | [G,C][G,B,] [E,A,][D,D] | [G,D]2 [G,B,]2 | %16
 z2 [G,B,]2 | [G,C][G,B,] G,[G,B,] | [B,,D][D,D] [G,D][E,^C] | [D,D]2 ([D,B,][C,A,]) | %20
 [B,,G,][G,,G,] [G,,G,][G,,G,] | [B,,G,][D,F,] G,[G,C] | [G,B,]2 [G,D][E,^C] | [D,D]2 [D,C]2 | %24
 [G,,G,B,]3 |] %25
V:4
 x2 | x4 | x2 G, x | x4 | x4 | x4 | x4 | x4 | x4 | x2 G, x | x4 | x4 | x4 | x4 | x4 | x4 | x4 | %17
 x2 G, x | x4 | x4 | x4 | x2 G, x | x4 | x4 | x3 |] %25

